packages/icons/svg/24/Save.svg

<svg width="24" height="24" viewBox="0 0 24 24" fill="none" xmlns="http://www.w3.org/2000/svg">
<path fill-rule="evenodd" clip-rule="evenodd" d="M7.29289 10.293L12 15.0001L16.7071 10.293C17.0976 9.90249 17.0976 9.26933 16.7071 8.8788C16.3166 8.48828 15.6834 8.48828 15.2929 8.8788L13 11.1717V4.00012C13 3.44784 12.5523 3.00012 12 3.00012C11.4477 3.00012 11 3.44784 11 4.00012V11.1717L8.70711 8.8788C8.31658 8.48828 7.68342 8.48828 7.29289 8.8788C6.90237 9.26933 6.90237 9.90249 7.29289 10.293ZM7 19.0001C6.44772 19.0001 6 18.5524 6 18.0001V12.0001H4V18.0001C4 19.657 5.34315 21.0001 7 21.0001H17C18.6569 21.0001 20 19.657 20 18.0001V12.0001H18V18.0001C18 18.5524 17.5523 19.0001 17 19.0001H7Z" fill="#858585"/>
</svg>

<svg width="24" height="24" fill="none" xmlns="http://www.w3.org/2000/svg" viewBox="0 0 24 24"><path fill-rule="evenodd" clip-rule="evenodd" d="M7.293 10.293L12 15l4.707-4.707a1 1 0 00-1.414-1.414L13 11.172V4a1 1 0 10-2 0v7.172L8.707 8.879a1 1 0 00-1.414 1.414zM7 19a1 1 0 01-1-1v-6H4v6a3 3 0 003 3h10a3 3 0 003-3v-6h-2v6a1 1 0 01-1 1H7z" fill="currentColor"></path></svg>
